Newaita/actions/32/task-new.svg

<svg height="32" viewBox="0 0 32 32" width="32" xmlns="http://www.w3.org/2000/svg"><g fill="#424242"><path d="m5.292969 2.894531c-1.464844 0-2.648438 1.183594-2.648438 2.648438v21.167969c0 1.464843 1.183594 2.644531 2.648438 2.644531h11.90625v-2.644531h-10.585938c-.730469 0-1.320312-.589844-1.320312-1.324219v-18.523438c0-.730469.589843-1.320312 1.320312-1.320312h18.523438c.734375 0 1.324219.589843 1.324219 1.320312v10.585938h2.644531v-11.90625c0-1.464844-1.179688-2.648438-2.644531-2.648438zm0 0"/><path d="m22.492188 6.867188c.730468 0 1.324218.589843 1.324218 1.320312s-.59375 1.324219-1.324218 1.324219c-.730469 0-1.324219-.59375-1.324219-1.324219s.59375-1.320312 1.324219-1.320312zm0 0"/><path d="m3.96875 10.835938h23.816406v1.320312h-23.816406zm0 0"/><path d="m9.261719 6.867188c.730469 0 1.324219.589843 1.324219 1.320312s-.59375 1.324219-1.324219 1.324219-1.324219-.59375-1.324219-1.324219.59375-1.320312 1.324219-1.320312zm0 0"/><path d="m20.507812 23.402344h7.9375c.367188 0 .660157.296875.660157.664062v1.320313c0 .367187-.292969.664062-.660157.664062h-7.9375c-.367187 0-.664062-.296875-.664062-.664062v-1.320313c0-.367187.296875-.664062.664062-.664062zm0 0"/><path d="m25.800781 20.757812v7.9375c0 .367188-.296875.660157-.664062.660157h-1.320313c-.367187 0-.664062-.292969-.664062-.660157v-7.9375c0-.367187.296875-.664062.664062-.664062h1.320313c.367187 0 .664062.296875.664062.664062zm0 0"/><path d="m21.855469 14.769531c-.226563-.003906-.441407.101563-.574219.285157l-5.519531 7.359374-3.414063-2.84375c-.1875-.164062-.449218-.210937-.683594-.125-.230468.082032-.398437.285157-.441406.53125-.039062.242188.054688.492188.246094.644532l3.96875 3.308594c.144531.121093.332031.175781.519531.15625.1875-.023438.355469-.121094.46875-.269532l5.953125-7.941406c.15625-.203125.1875-.476562.078125-.710938-.113281-.234374-.34375-.386718-.601562-.394531zm0 0"/></g></svg>

<?xml version="1.0" encoding="UTF-8"?>
<svg xmlns="http://www.w3.org/2000/svg" xmlns:xlink="http://www.w3.org/1999/xlink" width="32px" height="32px" viewBox="0 0 32 32" version="1.1">
<g id="surface1">
<path style=" stroke:none;fill-rule:nonzero;fill:rgb(25.882354%,25.882354%,25.882354%);fill-opacity:1;" d="M 5.292969 2.894531 C 3.828125 2.894531 2.644531 4.078125 2.644531 5.542969 L 2.644531 26.710938 C 2.644531 28.175781 3.828125 29.355469 5.292969 29.355469 L 17.199219 29.355469 L 17.199219 26.710938 L 6.613281 26.710938 C 5.882812 26.710938 5.292969 26.121094 5.292969 25.386719 L 5.292969 6.863281 C 5.292969 6.132812 5.882812 5.542969 6.613281 5.542969 L 25.136719 5.542969 C 25.871094 5.542969 26.460938 6.132812 26.460938 6.863281 L 26.460938 17.449219 L 29.105469 17.449219 L 29.105469 5.542969 C 29.105469 4.078125 27.925781 2.894531 26.460938 2.894531 Z M 5.292969 2.894531 "/>
<path style=" stroke:none;fill-rule:nonzero;fill:rgb(25.882354%,25.882354%,25.882354%);fill-opacity:1;" d="M 22.492188 6.867188 C 23.222656 6.867188 23.816406 7.457031 23.816406 8.1875 C 23.816406 8.917969 23.222656 9.511719 22.492188 9.511719 C 21.761719 9.511719 21.167969 8.917969 21.167969 8.1875 C 21.167969 7.457031 21.761719 6.867188 22.492188 6.867188 Z M 22.492188 6.867188 "/>
<path style=" stroke:none;fill-rule:nonzero;fill:rgb(25.882354%,25.882354%,25.882354%);fill-opacity:1;" d="M 3.96875 10.835938 L 27.785156 10.835938 L 27.785156 12.15625 L 3.96875 12.15625 Z M 3.96875 10.835938 "/>
<path style=" stroke:none;fill-rule:nonzero;fill:rgb(25.882354%,25.882354%,25.882354%);fill-opacity:1;" d="M 9.261719 6.867188 C 9.992188 6.867188 10.585938 7.457031 10.585938 8.1875 C 10.585938 8.917969 9.992188 9.511719 9.261719 9.511719 C 8.53125 9.511719 7.9375 8.917969 7.9375 8.1875 C 7.9375 7.457031 8.53125 6.867188 9.261719 6.867188 Z M 9.261719 6.867188 "/>
<path style=" stroke:none;fill-rule:nonzero;fill:rgb(25.882354%,25.882354%,25.882354%);fill-opacity:1;" d="M 20.507812 23.402344 L 28.445312 23.402344 C 28.8125 23.402344 29.105469 23.699219 29.105469 24.066406 L 29.105469 25.386719 C 29.105469 25.753906 28.8125 26.050781 28.445312 26.050781 L 20.507812 26.050781 C 20.140625 26.050781 19.84375 25.753906 19.84375 25.386719 L 19.84375 24.066406 C 19.84375 23.699219 20.140625 23.402344 20.507812 23.402344 Z M 20.507812 23.402344 "/>
<path style=" stroke:none;fill-rule:nonzero;fill:rgb(25.882354%,25.882354%,25.882354%);fill-opacity:1;" d="M 25.800781 20.757812 L 25.800781 28.695312 C 25.800781 29.0625 25.503906 29.355469 25.136719 29.355469 L 23.816406 29.355469 C 23.449219 29.355469 23.152344 29.0625 23.152344 28.695312 L 23.152344 20.757812 C 23.152344 20.390625 23.449219 20.09375 23.816406 20.09375 L 25.136719 20.09375 C 25.503906 20.09375 25.800781 20.390625 25.800781 20.757812 Z M 25.800781 20.757812 "/>
<path style=" stroke:none;fill-rule:nonzero;fill:rgb(25.882354%,25.882354%,25.882354%);fill-opacity:1;" d="M 21.855469 14.769531 C 21.628906 14.765625 21.414062 14.871094 21.28125 15.054688 L 15.761719 22.414062 L 12.347656 19.570312 C 12.160156 19.40625 11.898438 19.359375 11.664062 19.445312 C 11.433594 19.527344 11.265625 19.730469 11.222656 19.976562 C 11.183594 20.21875 11.277344 20.46875 11.46875 20.621094 L 15.4375 23.929688 C 15.582031 24.050781 15.769531 24.105469 15.957031 24.085938 C 16.144531 24.0625 16.3125 23.964844 16.425781 23.816406 L 22.378906 15.875 C 22.535156 15.671875 22.566406 15.398438 22.457031 15.164062 C 22.34375 14.929688 22.113281 14.777344 21.855469 14.769531 Z M 21.855469 14.769531 "/>
</g>
</svg>
